T: Road North, The
M: 3/4
L: 1/8
K: Amix
|: f2- f>B B2 | f4 g2 | a2- a>g a2 | f2- f>e c2 | f2- f>B B2 | f4 g2 | a2-a>f e2 | c4 B2 |f2- f>B B2 | f4 g2 | a2- a>g a2 | f2- f>e c2 | B4 b2 | f<a- a2 f<e | c4 B2 | c2- c>B A2 :||: d2- d>B B2 | f2- f>e f2 | c4 B2 | c2- c>B A2 | d2- d>B B2 | f2- f>B B2 | a4 f2 | b2- b>a f2 |d2- d>B B2 | f2- f>e f2 | c4 B2 | c2- c>B A2 | d4 B<d | f4 d<f | a4 f<a | b2- b>a f2 :||: f2- f>b b2 | b4 a2 | f2- f>e f2 | g2- g>f e2 | f2- f>b b2 | b4 a2 | f2- f>e f2 | g4 f2 |f2- f>b b2 | b4 a2 | f2- f>e f2 | g2- g>f e2 | f<a- a4 | f<a- a2 f2 | e2- e>c A2 | c4 B2 :||: f>BB f2 g | a>ga f>ec | f>BB f2 g | a>fe c2 B |f>BB f2 g | a>ga f>ec | B2 b f<af/<e/ | c2 B c>BA :||: d>BB f>ef | c2 B c>BA | d>BB f>BB | a2 f b>af |d>BB f>ef | c2 B c>BA | d2 B/<d/ f2 d/<f/ | a2 f/<a/ b>af :|| : f>bb b2 a | f>ef g>fe | f>bb b2 a | f>ef g2 f |f>bb b2 a | f>ef g>fe | f<a-a f<af | e>cA c2 B :|
